src/client/static/icons/icon_instagram.svg

<svg id="Layer_1" data-name="Layer 1" xmlns="http://www.w3.org/2000/svg" viewBox="0 0 32 32">
  <title>dv_design-system_icons</title>
  <g id="Symbols">
    <g id="footer_large_open" data-name="footer/large/open">
      <g id="social_" data-name="social\">
        <g id="Group-3-Copy-2">
          <path id="Shape" d="M21.259,5.853H10.734a4.819,4.819,0,0,0-4.881,4.883V21.264a4.819,4.819,0,0,0,4.881,4.883H21.259a4.819,4.819,0,0,0,4.881-4.883V10.736A4.728,4.728,0,0,0,21.259,5.853ZM16.073,22.638a6.562,6.562,0,1,1,6.559-6.562A6.61,6.61,0,0,1,16.073,22.638ZM22.632,10.43a1.373,1.373,0,1,1,1.373-1.373A1.367,1.367,0,0,1,22.632,10.43Zm-6.524,1.123a4.59,4.59,0,0,1,4.576,4.578,4.5,4.5,0,0,1-4.576,4.577,4.5,4.5,0,0,1-4.576-4.577A4.5,4.5,0,0,1,16.108,11.553Z" fill="#222"/>
        </g>
      </g>
    </g>
  </g>
</svg>

<svg xmlns="http://www.w3.org/2000/svg" viewBox="0 0 32 32">
    <path fill="#222" d="M21.26 5.85H10.73a4.82 4.82 0 0 0-4.88 4.89v10.52a4.82 4.82 0 0 0 4.88 4.89h10.53a4.82 4.82 0 0 0 4.88-4.89V10.74a4.73 4.73 0 0 0-4.88-4.89zm-5.19 16.79a6.56 6.56 0 1 1 6.56-6.56 6.61 6.61 0 0 1-6.56 6.56zm6.56-12.21a1.37 1.37 0 1 1 1.38-1.37 1.37 1.37 0 0 1-1.38 1.37zm-6.52 1.12a4.59 4.59 0 0 1 4.57 4.58 4.5 4.5 0 0 1-4.57 4.58 4.5 4.5 0 0 1-4.58-4.58 4.5 4.5 0 0 1 4.58-4.58z"/>
</svg>
